icon/fa/cookie.svg

<svg xmlns="http://www.w3.org/2000/svg" viewBox="0 0 512 512"><!--! Font Awesome Free 6.1.2 by @fontawesome - https://fontawesome.com License - https://fontawesome.com/license/free (Icons: CC BY 4.0, Fonts: SIL OFL 1.1, Code: MIT License) Copyright 2022 Fonticons, Inc.--><path d="m494.5 254.8-11.37-71.48a124.085 124.085 0 0 0-34.8-68.32L397 63.67c-18.52-18.52-42.3-30.7-68.2-34.8l-71.9-11.34c-25.7-4.11-52.2.11-75.4 11.95l-64.8 33.05C93.23 74.36 74.36 93.35 62.41 116.7l-32.9 64.5c-11.84 23.44-16.08 50.04-11.98 75.94l11.37 71.48c4.101 25.9 16.29 49.77 34.8 68.41l51.33 51.33c18.52 18.4 42.3 30.61 68.2 34.72l71.84 11.37c25.78 4.102 52.27-.117 75.47-11.95l64.8-33.05c23.32-11.84 42.3-30.82 54.26-54.14l32.81-64.57c11.99-23.44 16.19-49.94 12.09-75.94zM176 367.1c-17.62 0-31.1-14.37-31.1-31.1 0-17.62 14.37-31.1 31.1-31.1s31.1 14.37 31.1 31.1c.9 17.6-13.5 31.1-31.1 31.1zM208 208c-17.62 0-31.1-14.37-31.1-31.1s14.38-31.1 31.1-31.1c17.62 0 31.1 14.37 31.1 31.1S225.6 208 208 208zm160 127.1c-17.62 0-31.1-14.37-31.1-31.1 0-17.62 14.37-31.1 31.1-31.1s31.1 14.37 31.1 31.1c.9 17.6-13.5 31.1-31.1 31.1z"/></svg>

<svg xmlns="http://www.w3.org/2000/svg" viewBox="0 0 512 512" height="1em" width="1em">
<!--! Font Awesome Free 6.1.2 by @fontawesome - https://fontawesome.com License - https://fontawesome.com/license/free (Icons: CC BY 4.0, Fonts: SIL OFL 1.1, Code: MIT License) Copyright 2022 Fonticons, Inc.-->
  <path d="M494.5 254.8l-11.37-71.48c-4.102-25.9-16.29-49.8-34.8-68.32l-51.33-51.33c-18.52-18.52-42.3-30.7-68.2-34.8L256.9 17.53C231.2 13.42 204.7 17.64 181.5 29.48L116.7 62.53C93.23 74.36 74.36 93.35 62.41 116.7L29.51 181.2c-11.84 23.44-16.08 50.04-11.98 75.94l11.37 71.48c4.101 25.9 16.29 49.77 34.8 68.41l51.33 51.33c18.52 18.4 42.3 30.61 68.2 34.72l71.84 11.37c25.78 4.102 52.27-.1173 75.47-11.95l64.8-33.05c23.32-11.84 42.3-30.82 54.26-54.14l32.81-64.57C494.4 307.3 498.6 280.8 494.5 254.8zM176 367.1c-17.62 0-31.1-14.37-31.1-31.1c0-17.62 14.37-31.1 31.1-31.1s31.1 14.37 31.1 31.1C208 353.6 193.6 367.1 176 367.1zM208 208c-17.62 0-31.1-14.37-31.1-31.1s14.38-31.1 31.1-31.1c17.62 0 31.1 14.37 31.1 31.1S225.6 208 208 208zM368 335.1c-17.62 0-31.1-14.37-31.1-31.1c0-17.62 14.37-31.1 31.1-31.1s31.1 14.37 31.1 31.1C400 321.6 385.6 335.1 368 335.1z"/>
</svg>
